X: 149125
T: COME UNDER MY PLAIDIE
Q: "Lively."
%R: jig
B: James Kerr "Merry Melodies" v.1 p.49 s.1 #25
Z: 2016 John Chambers <jc:trillian.mit.edu>
M: 6/8
L: 1/8
K: G	% and Em
ug |\
dBB BAG | dBB uB2 ug | dBB BAB | GEE E2 ug |\
dBB BAG | ded BAG | ABc BAB | GEE E2 ||
ud |\
g3 aga | bge dBG | g3 aga | bge ega |\
bgb afa | gef Hgfe | dBB BAB | GEE E2 |]

%%sep 1 1 500
%%sep 1 1 500

